X: 02134
T: UMBAGOG RENDEZVOUS
C: Bob McQuillen Aug'74
B: Bob's Note Book 1&2 #134
%R: march, reel
Z: 2019 John Chambers <jc:trillian.mit.edu>
M: C
L: 1/8
K: G
BA \
| G2d2 B2d2 | gfga g2Bc | d2g2 d2g2 | dBGB A2GA |\
| B2d2 g2e2 | efga b2ba | g2e2 d2B2 | AGAB G2 :|
|: dc \
| B2d2 e2d2 | bage d2ed | B2d2 g2b2 | a6 dc |\
| B2d2 e2d2 | bage d2ef | g2e2 d2B2 | A6 :|
%%begintext align
%% For all the Merry
%% Company assembled
%% at Deer Run North
%%endtext

%%sep 1 1 500

%%sep 1 1 500

